X:1
T:Minuets in G & Gm
T:Minuets in G & Gm
T:for Flute and Piano
T:Johann S. Bach (1685-1750)
C:Johann S. Bach
%%score 1 { ( 2 3 ) | ( 4 5 ) }
L:1/8
M:3/4
K:G
V:1 treble nm="Flute" snm="Fl."
V:2 treble nm="Harp" snm="Hrp."
V:3 treble 
V:4 bass 
V:5 bass 
V:1
!mf! d2"_con grazia" (GA)Bc | d2 (.G2 .G2) | e2 (Mcd)ef | g2 (.G2 .G2) | Mc2 (dc)BA | B2 (cB)AG | %6
 F2 (GA)BG |!>(!{/B} A6!>)! |!mp! d2 (GA)Bc | d2 (.G2 .G2) | e2 (Mcd)ef | g2 (.G2 .G2) | %12
 Mc2 (dc)BA | B2 (cB)AG | A2!>(! (BA)GF |!p! G6!>)! |!f! b2 (ga)bg | a2 (de)fd | g2 (ef)gd | %19
!>(! ^c2 Bc!mf!!p! A2!>)! |!<(! (AB)^cdef!<)! |!f!!f! g2 f2 e2 | f2 (A2 ^c2) |!>(! d6!>)! | %24
!p! d2 GF G2 | !4!e2 GF G2 | d2 (.c2 .B2) | (!4!AG)FG !4!A2 |!f! (DE)FGAB | c2 PB2 A2 | %30
 (Bd)!>(! (.G2 .F2)!>)! |!p! G6!fine! ||[K:Bb]"^dolce"!mf! b2 (!tenuto!a2 !tenuto!g2) | %33
 (a2 d2) d2 | g2 (GA)Bc | d4!<(! !1!d2 | e2!<)!!f! (fe)!3!dc | d2 (ed)cB | c2 (dc)!>(!Bc | %39
 PA6!>)! |"^dolce"!mf! b2 (!tenuto!Pa2 !tenuto!g2) | (a2 d2) d2 | g2 (GA)Bc |!<(! d4 !1!d2!<)! | %44
!f! Mf2 (gf)ed | e2 (fe)!3!dc | d2 (!tenuto!g2!>(! !tenuto!Pc2) | B6!>)! |!mf! d2 (Bc)!<(!d=e | %49
 f2 (!tenuto!g2 !tenuto!a2)!<)! |!f! b2 (ga)bg | (a2 ga) f2 | (FG)ABcd | e2 d2 c2 | %54
 f2!>(! (!tenuto!B2 !tenuto!A2) | B6!>)! |!p! G2 dc d2 | G2 ed e2 | (Gd)(^Fc)(GB) | A4 z2 | %60
!mf! (D=E)^FGAB | c2 B2 A2 | (PBc/d/)!>(! (!tenuto!G2 !tenuto!^F2)!>)! |!pp! G6!D.C.! |] %64
V:2
!mf! (D4- [D-F]2)"_con grazia" | [DG]4 z2 | [EG-]6 | [DG]4 z2 | (G4 [D-F]2 | [DG]4) z2 | F2 G2 B2 | %7
!>(! [FA]4 z2!>)! |!mp! (D4- [DF]2) | [DG]2 z2 z2 | ([EG-]6 | [DG]2) z2 z2 | (G4 [D-F]2 | %13
 [DG]4) z2 | [CE]2!>(! [B,D]2 [CD]2 |!p! [B,D]4 z2!>)! |!f! [DGBd]2 z4 | [DAd]2 z4 | z2 ((BA)) GB | %19
!>(! A6!>)! |!<(! ((^CD) EF GA)!<)! |!f!!f! z ([DG] z [DA] z [EA]) | (Ad fa ge) |!>(! [DFd]6!>)! | %24
!p! [DGd]6 | [EGe]6 | .[DG]2 .[DA]2 .[DB]2 | (([FA][EG])) [DF][EG] [FA]2 |!f! ((D^C) DE FG) | %29
 z ([CG] z [DG]) z [DA] | ((GB)!>(! .[Dd]2) .[CD]2!>)! |!p! [B,D]6 ||[K:Bb]"^dolce"!mf! (d4 B2) | %33
 (d4 A2) | (B4 GA | ^F6) | (B4 F2)!f! | (G4 G2) | (.^F2 .A2!>(! .G2) | ^F6!>)! | %40
"^dolce"!mf! (G4 B2) | (F4 A2) | B6 |!<(! A6!<)! |!f! (G4 G2) | (A4 A2) | (B4!>(! A2) | F6!>)! | %48
!mf! (B4!<(! Bc | c2) B2 c2!<)! |!f! (d4 c2) | (c4 A2) | (F4 A2) | (B4 A2) | (B4 F2) | F6 |!p! G6 | %57
 G6 | z (([Gd] z [Ac] z [GB])) | ^F6 |!mf! (A,4 C2) | (E4 E2) | (.G2!>(! .D2 .D2)!>)! | %63
!pp! [G,D]6 |] %64
V:3
 B,4 C2 | x6 | x6 | x6 | C6 | B,4 x2 | z2 D4 | x6 | B,4 C2 | x6 | x6 | x6 | C6 | B,4 x2 | x6 | x6 | %16
 x6 | x6 | x2 E4 | (E2 D)E!mf!!p! ^C2 | x6 | x6 | x6 | x6 | x6 | x6 | x6 | x6 | x6 | x6 | x6 | %31
 x6 ||[K:Bb] x6 | x6 | x6 | x6 | x6 | x6 | x6 | x6 | x6 | x6 | x6 | x6 | x6 | x6 | x6 | [DF]6 | %48
 x6 | x6 | x6 | x6 | x6 | x6 | x6 | x6 | x6 | x6 | x6 | x6 | x6 | x6 | x6 | [B,D]6 |] %64
V:4
 G,4 A,2 | B,2- B,4 | C4- C2 | B,6 | A,6 | G,2- G,4 | D2 B,2 G,2 | D2 D,CB,A, | B,4 A,2 | %9
 G,2 B,2 G,2 | C4- C2 | B,2 (CB,)A,G, | A,4 F,2 | G,2- G,2 B,2 | C2 D2 D,2 | G,4 G,,2 | G,6 | %17
 F,2- F,4 | E,2 G,2 E,2 | A,4 A,,2 | A,6 | B,2 D2 ^C2 | D2 F,2 A,2 | D2 D,2 C2 | z2 D4 | z2 E4 | %26
 B,2 A,2 G,2 | D4 z2 | z4 F,2 | E,2 G,2 F,2 | G,2 B,,2 D,2 | G,2 D,2 G,,2 ||[K:Bb] G,6 | F,6 | %34
 E,6 | D,2 (DC)B,A, | ([G,B,]4 A,2) | (B,4 G,2) | (A,2 ^F,2 G,2) | D,2 (DCB,A,) | G,6 | F,6 | E,6 | %43
 D,2 ((DC)=B,A,) | ([=B,D]4 G,2) | (C2 A,2 F,2) | (B,2 E,2 [F,A,]2) | B,2 B,,4 | B,6 | %49
 (A,2 G,2 F,2) | (G,2 =E,2 C,2) | (F,4 z2) | (A,2 G,2 F,2) | (G,2 F,2 E,2) | (D,2 E,2 F,2) | %55
 B,,2 D2 C2 | [=B,D]6 | C6 | (B,2 A,2 G,2) | D2 A,G,^F,=E, | (D,4 z2) | (E,2 D,2 C,2) | %62
 (B,,2 C,2 D,2) | G,2 G,,4 |] %64
V:5
 [B,D]4 x2 | x6 | x6 | x6 | x6 | x6 | x6 | x6 | x6 | x6 | x6 | x6 | x6 | x6 | x6 | x6 | x6 | x6 | %18
 x6 | x6 | x6 | x6 | x6 | x6 | B,4 B,2 | C2- C2 C2 | x6 | x6 | D,6 | x6 | x6 | x6 ||[K:Bb] x6 | %33
 x6 | x6 | x6 | x6 | x6 | x6 | x6 | x6 | x6 | x6 | x6 | x6 | x6 | B,2 E,2 F,2 | x6 | x6 | x6 | x6 | %51
 x6 | x6 | x6 | x6 | x6 | x6 | x6 | x6 | x6 | x6 | x6 | x6 | x6 |] %64

